static/images/pieces/shogi/cz/0NK.svg

<svg height="31.358999mm" viewBox="0 0 27.116999 31.358999" width="27.116999mm" xmlns="http://www.w3.org/2000/svg" xmlns:xlink="http://www.w3.org/1999/xlink"><linearGradient id="a" gradientUnits="userSpaceOnUse" x1="10.84031" x2="10.84031" y1="7.49974" y2="-61.38281"><stop offset="0" stop-color="#ffdba6"/><stop offset="1" stop-color="#f2c478"/></linearGradient><clipPath id="b"><path d="m0 2834.646h2834.646v-2834.646h-2834.646z" transform="translate(-246.54421 -1472.6108)"/></clipPath><g clip-path="url(#b)" stroke-miterlimit="10" transform="matrix(.35277776 0 0 -.35277776 20.535298 6.175724)"><path d="m0 0-19.243 6.562c-.342.116-.717.116-1.059 0l-19.243-6.562c-.531-.181-.912-.618-.993-1.139l-8.982-57.757c-.134-.863.585-1.636 1.523-1.636h28.224 28.225c.938 0 1.657.773 1.523 1.636l-8.982 57.757c-.081.521-.462.958-.993 1.139" fill="url(#a)"/><path d="m-47.996094-61.382812c-1.405202 0-2.57986 1.222357-2.363281 2.617187l8.980469 57.7578125c.132098.84966903.749527 1.53671649 1.558594 1.8125l19.24414 6.5625h.002c.521072.1767378 1.082444.1767378 1.603516 0h.002l19.2421875-6.5625c.00088034-.00030008.001073-.001652.001953-.001953.8076761-.27637896 1.4265454-.96180249 1.5584999-1.810547l8.9804686-57.7578125c.216579-1.39483-.958079-2.617188-2.3632811-2.617187h-28.2246089zm0 1.701171h28.222657 28.2246089c.470796 0 .7350149.323129.6835937.654297l-8.98242185 57.7578128c-.0299016.1923299-.17284885.37862757-.42578125.4648437l.2734375.8046875-.27539063-.8046875-19.24023437 6.5605469c-.162927.055262-.350744.055262-.513672 0l-19.242187-6.5605469c-.252933-.0862161-.39588-.2725138-.425782-.4648437l-8.982421-57.7578128c-.05142-.331168.212797-.654297.683593-.654297z" fill="#4d3608"/></g><g fill="#f00"><path d="m10.550122 11.246194h5.159377l.09922-.09922.628386.330729-.661459 1.752866q-.198438.463021-.595313 1.455209l-.79375-.264584.529167-1.223698.496094-1.223699h-4.861721zm2.976564-3.340366q0 0-1.12448 1.1244796-.264583.2645835-.859896.7606774h3.935679q-.727605-.5622398-1.058334-.8929691-.429948-.3638022-.892969-.9921879zm-.231511-.9921879.793751.3307293-.09922.1653647q1.091406 1.0914067 1.256771 1.2236984.694532.5291668 1.12448.7937503.463021.2645834 1.223698.5291669-.396875.4630213-.56224.7276043-.529167-.23151-1.488282-.8598961v.6614591h-4.167188v-.5953132q-.859896.6614582-1.322917.8598962-.2645833-.429948-.429948-.661459.760677-.3968748 1.025261-.6283853.727604-.5291669 1.223698-1.0252608.926042-.926042 1.422136-1.5213548z" stroke-width=".352777"/><path d="m-.63867187 0v22.677734h1.27734374v-22.677734z" stroke-miterlimit="10" transform="matrix(.35277776 0 0 -.35277776 13.560001 24.680074)"/><path d="m-22.677734-.63867187v1.27734374h22.677734v-1.27734374z" stroke-miterlimit="10" transform="matrix(.35277776 0 0 -.35277776 17.559972 20.680077)"/><path d="m-.45117188-.45117188-8.01757812 8.01757808.9023438.9023438 8.01757808-8.01757812z" stroke-miterlimit="10" transform="matrix(.35277776 0 0 -.35277776 13.560001 20.680077)"/><path d="m-7.5664062-8.46875-.9023438.9023438 8.01757812 8.01757808.90234376-.90234376z" stroke-miterlimit="10" transform="matrix(.35277776 0 0 -.35277776 16.388397 17.851628)"/></g></svg>

<?xml version="1.0" encoding="UTF-8" standalone="no"?>
<!-- Created with Inkscape (http://www.inkscape.org/) -->

<svg
   width="27.116999mm"
   height="31.358999mm"
   viewBox="0 0 27.116999 31.358999"
   version="1.1"
   id="svg1"
   xmlns:xlink="http://www.w3.org/1999/xlink"
   xmlns="http://www.w3.org/2000/svg"
   xmlns:svg="http://www.w3.org/2000/svg">
  <defs
     id="defs1">
    <linearGradient
       xlink:href="#linearGradient22"
       id="linearGradient2"
       x1="-205.84001"
       y1="133.13567"
       x2="-205.84001"
       y2="64.25312"
       gradientUnits="userSpaceOnUse"
       gradientTransform="translate(216.68032,-125.63593)" />
    <linearGradient
       id="linearGradient22">
      <stop
         style="stop-color:#ffdba6;stop-opacity:1;"
         offset="0"
         id="stop21" />
      <stop
         style="stop-color:#f2c478;stop-opacity:1;"
         offset="1"
         id="stop22" />
    </linearGradient>
    <clipPath
       clipPathUnits="userSpaceOnUse"
       id="clipPath1388">
      <path
         d="M 0,2834.646 H 2834.646 V 0 H 0 Z"
         transform="translate(-246.54421,-1472.6108)"
         id="path1388" />
    </clipPath>
  </defs>
  <g
     id="layer1">
    <g
       id="path1387"
       clip-path="url(#clipPath1388)"
       transform="matrix(0.35277776,0,0,-0.35277776,20.535298,6.1757244)">
      <path
         style="color:#000000;fill:url(#linearGradient2);stroke-miterlimit:10;-inkscape-stroke:none"
         d="m 0,0 -19.243,6.562 c -0.342,0.116 -0.717,0.116 -1.059,0 L -39.545,0 c -0.531,-0.181 -0.912,-0.618 -0.993,-1.139 l -8.982,-57.757 c -0.134,-0.863 0.585,-1.636 1.523,-1.636 h 28.224 28.225 c 0.938,0 1.657,0.773 1.523,1.636 L 0.993,-1.139 C 0.912,-0.618 0.531,-0.181 0,0"
         id="path7" />
      <path
         style="color:#000000;fill:#4d3608;stroke-miterlimit:10;-inkscape-stroke:none"
         d="m -47.996094,-61.382812 c -1.405202,0 -2.57986,1.222357 -2.363281,2.617187 l 8.980469,57.7578125 c 0.132098,0.84966903 0.749527,1.53671649 1.558594,1.8125 l 19.24414,6.5625 h 0.002 c 0.521072,0.1767378 1.082444,0.1767378 1.603516,0 h 0.002 l 19.2421875,-6.5625 c 8.8034e-4,-3.0008e-4 0.001073,-0.001652 0.001953,-0.001953 0.8076761,-0.27637896 1.4265454,-0.96180249 1.5584999,-1.810547 L 10.814453,-58.765625 c 0.216579,-1.39483 -0.958079,-2.617188 -2.3632811,-2.617187 H -19.773437 Z m 0,1.701171 h 28.222657 28.2246089 c 0.470796,0 0.7350149,0.323129 0.6835937,0.654297 L 0.15234375,-1.2695312 c -0.0299016,0.1923299 -0.17284885,0.37862757 -0.42578125,0.4648437 L 0,0 -0.27539063,-0.8046875 -19.515625,5.7558594 c -0.162927,0.055262 -0.350744,0.055262 -0.513672,0 l -19.242187,-6.5605469 c -0.252933,-0.0862161 -0.39588,-0.2725138 -0.425782,-0.4648437 l -8.982421,-57.7578128 c -0.05142,-0.331168 0.212797,-0.654297 0.683593,-0.654297 z"
         id="path8" />
    </g>
    <path
       style="fill:#ff0000;stroke-width:0.352777"
       d="m 10.550122,11.246194 h 5.159377 l 0.09922,-0.09922 0.628386,0.330729 -0.661459,1.752866 q -0.198438,0.463021 -0.595313,1.455209 l -0.79375,-0.264584 0.529167,-1.223698 0.496094,-1.223699 h -4.861721 z m 2.976564,-3.340366 q 0,0 -1.12448,1.1244796 -0.264583,0.2645835 -0.859896,0.7606774 h 3.935679 Q 14.750384,9.2287452 14.419655,8.8980159 13.989707,8.5342137 13.526686,7.905828 Z m -0.231511,-0.9921879 0.793751,0.3307293 -0.09922,0.1653647 q 1.091406,1.0914067 1.256771,1.2236984 0.694532,0.5291668 1.12448,0.7937503 0.463021,0.2645834 1.223698,0.5291669 -0.396875,0.4630213 -0.56224,0.7276043 -0.529167,-0.23151 -1.488282,-0.8598961 V 10.485517 H 11.376945 V 9.8902038 Q 10.517049,10.551662 10.054028,10.7501 9.7894447,10.320152 9.62408,10.088641 10.384757,9.6917662 10.649341,9.4602557 11.376945,8.9310888 11.873039,8.4349949 12.799081,7.5089529 13.295175,6.9136401 Z"
       id="text1388"
       aria-label="今" />
    <path
       style="color:#000000;fill:#ff0000;stroke-miterlimit:10;-inkscape-stroke:none"
       d="M -0.63867187,0 V 22.677734 H 0.63867187 V 0 Z"
       id="path1435"
       transform="matrix(0.35277776,0,0,-0.35277776,13.560001,24.680074)" />
    <path
       style="color:#000000;fill:#ff0000;stroke-miterlimit:10;-inkscape-stroke:none"
       d="M -22.677734,-0.63867187 V 0.63867187 H 0 v -1.27734374 z"
       id="path1437"
       transform="matrix(0.35277776,0,0,-0.35277776,17.559972,20.680077)" />
    <path
       style="color:#000000;fill:#ff0000;stroke-miterlimit:10;-inkscape-stroke:none"
       d="M -0.45117188,-0.45117188 -8.46875,7.5664062 -7.5664062,8.46875 0.45117188,0.45117188 Z"
       id="path1439"
       transform="matrix(0.35277776,0,0,-0.35277776,13.560001,20.680077)" />
    <path
       style="color:#000000;fill:#ff0000;stroke-miterlimit:10;-inkscape-stroke:none"
       d="M -7.5664062,-8.46875 -8.46875,-7.5664062 -0.45117188,0.45117188 0.45117188,-0.45117188 Z"
       id="path1441"
       transform="matrix(0.35277776,0,0,-0.35277776,16.388397,17.851628)" />
  </g>
</svg>
